X: 29
T:Dance from Sj\aelland
M:2/4
L:1/8
Q:1/4=144
C:anon.
O:Denmark
Z:Transcribed by Frank Nordberg - http://www.musicaviva.com
K:D
%http://www.musicaviva.com/abc/denmark.abc
dc dc|d2A2|d2f2|f2e2|e^d ed|e2A2|Bd ce|d4:|
|:A2 de|f2d2|B2 Bc|A4|G2GA|F2FG|E2EF|D4:|
W:
W: From "Falaleiro" http://home.t-online.de/home/pheld/homepage.htm

